X:1
T: Mr. Alexander Walker of Castle Newe
C:
R:Strathspey
Q: 128
K:G
M:4/4
L:1/16
|:B2|DG,3 B,D3 G4 G3D|G4 G3B AA,3 A,3B,|G,G,3 B,3D G4 G3A|((3B2A2G2) ((3G2F2E2) ((3D2E2C2) ((3B,2C2A,2) |
B,G,3 B,D3 G4 G3D|G4 G3B cA3 A3c|Bd3 g3f e3c d3c|BG3 A3F G3G, G,2e2|
dG3 B3G E3G D3G|CE3 B,D3 EA,3 A,3e|dG3 B3G E3G D3G|c3e d3f gG3 G3e|
dG3 B3G E3G D3G|c3A B3G FA3 A3B|G3D B3D c3A d3B|e3A f3d gG3 G2:|
